X:563
T: I FAHR AUF DER POST
N: E1859
O: Europa, Mitteleuropa, Ungarn, Oedenburg
R: Kinder - Lied
M: 3/4
L: 1/8
K: A
e2 | c4e2 | A4c2 | E2E2E2 | A4
e2 | c4e2 | A4c2 | E2E2E2 | A6 |
E2E2E2 | A2Ace2 | E2E2E2 | A2Ace
e | c4e2 | A4c2 | E2E2E2 | A4

@@@ Tune index: 5247
